packages/elvis-assets-icons/icons/svg/src/reset.svg

<svg width="24" height="24" viewBox="0 0 24 24" fill="none" xmlns="http://www.w3.org/2000/svg">
<g clip-path="url(#clip0)">
<path d="M0.749999 12.7389C0.75 11.2461 1.05134 9.85274 1.65402 8.45943C1.75447 8.26039 1.85491 8.06134 2.0558 8.06134C2.2567 7.96182 2.45759 7.96182 2.65848 8.06134C2.95982 8.16086 3.16072 8.45943 3.16072 8.758C3.16072 8.85752 3.16072 8.95704 3.06027 9.05656C2.55804 10.2508 2.35714 11.4451 2.35714 12.7389C2.35714 15.2269 3.26116 17.516 5.0692 19.3074C6.87723 21.0988 9.28795 22.1935 11.7991 22.293C14.4107 22.3926 16.8214 21.3973 18.7299 19.6059C20.6384 17.8145 21.7433 15.3265 21.7433 12.7389C21.7433 10.2508 20.8393 7.96182 19.0313 6.17041C17.3237 4.47854 15.0134 3.38379 12.7031 3.18475C10.5938 3.08522 8.48438 3.58284 6.67634 4.7771L9.58929 4.7771C9.99107 4.7771 10.3929 5.17519 10.3929 5.57328C10.3929 5.97137 9.99107 6.36946 9.58929 6.36946L4.76786 6.36946C4.36607 6.36946 3.96429 5.97137 3.96429 5.57328L3.96429 5.37424C3.96429 5.37424 3.96429 5.37424 3.96429 5.27471L3.96429 0.796209C3.96429 0.39812 4.26563 3.05829e-05 4.76786 3.06049e-05C5.27009 3.06268e-05 5.57143 0.39812 5.57143 0.796209L5.57143 3.58283C7.47991 2.28904 9.89063 1.49287 12.2009 1.59239C12.4018 1.59239 12.7031 1.59239 13.0045 1.69191L13.1049 1.69191C13.2054 1.69191 13.2054 1.69191 13.3058 1.69191C16.0179 1.99048 18.3281 3.18475 20.1362 5.07567C22.1451 7.16564 23.25 9.95226 23.25 12.8384C23.25 14.3312 22.9487 15.7246 22.346 17.1179C22.346 17.2174 22.2455 17.3169 22.1451 17.4164C21.5424 18.7102 20.7388 19.9045 19.6339 20.8997C15.1138 25.1792 7.98214 24.9801 3.66295 20.6012C1.85491 18.4117 0.749999 15.625 0.749999 12.7389Z" fill="black"/>
</g>
<defs>
<clipPath id="clip0">
<rect width="24" height="24" fill="white"/>
</clipPath>
</defs>
</svg>

<svg width="24" height="24" fill="none" xmlns="http://www.w3.org/2000/svg"><g clip-path="url(#clip0)"><path d="M.75 12.739c0-1.493.301-2.886.904-4.28.1-.199.2-.398.402-.398.2-.1.402-.1.602 0 .302.1.503.398.503.697 0 .1 0 .199-.1.299-.503 1.194-.704 2.388-.704 3.682 0 2.488.904 4.777 2.712 6.568 1.808 1.792 4.219 2.887 6.73 2.986 2.612.1 5.022-.896 6.93-2.687 1.91-1.792 3.014-4.28 3.014-6.867 0-2.488-.904-4.777-2.712-6.569-1.707-1.691-4.018-2.786-6.328-2.985-2.11-.1-4.219.398-6.027 1.592H9.59c.402 0 .804.398.804.796s-.402.796-.804.796H4.768c-.402 0-.804-.398-.804-.796v-.199V.796c0-.398.302-.796.804-.796s.803.398.803.796v2.787c1.909-1.294 4.32-2.09 6.63-1.99.2 0 .502 0 .803.099H13.306c2.712.298 5.022 1.493 6.83 3.384a11.196 11.196 0 013.114 7.762c0 1.493-.301 2.887-.904 4.28 0 .1-.1.199-.2.298-.604 1.294-1.407 2.488-2.512 3.484-4.52 4.28-11.652 4.08-15.971-.299C1.855 18.411.75 15.625.75 12.74z" fill="#000"/></g><defs><clipPath id="clip0"><path fill="#fff" d="M0 0h24v24H0z"/></clipPath></defs></svg>
